dist/svg/email-edit.svg

<svg width="16" height="16" viewBox="0 0 16 16" fill="rgb(34, 34, 34)" xmlns="http://www.w3.org/2000/svg"><title>email-edit</title><path d="M15 1H0.999977C0.994977 1 0.988977 1 0.982977 1C0.468977 1 0.0459766 1.394 0.000976562 1.896V1.9V12C0.000976562 12.005 0.000976562 12.011 0.000976562 12.017C0.000976562 12.531 0.394977 12.954 0.896977 12.999H0.900977H5.80098L6.00098 11.999H1.00098V3.199L8.00098 7.999L15.001 3.199V5.599L16.001 6.599V1.999C16.001 1.994 16.001 1.988 16.001 1.982C16.001 1.468 15.607 1.045 15.105 1H15.101H15ZM7.99998 6.8L0.999977 2H15L7.99998 6.8ZM15 12H14.2L13.2 13H15C15.005 13 15.011 13 15.017 13C15.531 13 15.954 12.606 15.999 12.104V12.1V10.2L14.999 11.2L15 12ZM11.5 7.7L7.09998 12.1L5.99998 16L9.89998 15L14.3 10.6L11.5 7.7ZM6.99998 15L7.69998 12.8L9.19998 14.3L6.99998 15ZM15.7 9.1C15.885 8.924 16 8.675 16 8.4C16 8.125 15.885 7.876 15.7 7.7L14.3 6.3C14.124 6.115 13.875 6 13.6 6C13.325 6 13.076 6.115 12.9 6.3L12.2 7L15 9.8L15.7 9.1Z" fill="rgb(34, 34, 34)" fill-opacity="1.00"/></svg>

<!-- Generated by Trend Micro Style Portal -->
<svg version="1.1" xmlns="http://www.w3.org/2000/svg" width="16" height="16" viewBox="0 0 16 16">
  <title>email-edit</title>
  <path fill="rgb(34,34,34)" d="M15 1h-14c-0.005-0-0.011-0-0.017-0-0.514 0-0.937 0.394-0.982 0.896l-0 0.004v10.1c-0 0.005-0 0.011-0 0.017 0 0.514 0.394 0.937 0.896 0.982l0.004 0h4.9l0.2-1h-5v-8.8l7 4.8 7-4.8v2.4l1 1v-4.6c0-0.005 0-0.011 0-0.017 0-0.514-0.394-0.937-0.896-0.982l-0.004-0zM8 6.8l-7-4.8h14zM15 12h-0.8l-1 1h1.8c0.005 0 0.011 0 0.017 0 0.514 0 0.937-0.394 0.982-0.896l0-0.004v-1.9l-1 1zM11.5 7.7l-4.4 4.4-1.1 3.9 3.9-1 4.4-4.4zM7 15l0.7-2.2 1.5 1.5zM15.7 9.1c0.185-0.176 0.3-0.425 0.3-0.7s-0.115-0.524-0.3-0.7l-0-0-1.4-1.4c-0.176-0.185-0.425-0.3-0.7-0.3s-0.524 0.115-0.7 0.3l-0 0-0.7 0.7 2.8 2.8z"></path>
</svg>
